src/assets/svg/icons/fa/nuevos/classic/light/bucket classic light.svg

<svg xmlns="http://www.w3.org/2000/svg" viewBox="0 0 448 512"><path d="M80 160C71.16 160 64 152.8 64 144C64 64.47 128.5 0 208 0H240C319.5 0 384 64.47 384 144C384 152.8 376.8 160 368 160C359.2 160 352 152.8 352 144C352 82.14 301.9 32 240 32H208C146.1 32 96 82.14 96 144C96 152.8 88.84 160 80 160zM.0003 208C.0003 199.2 7.164 192 16 192H432C440.8 192 448 199.2 448 208C448 216.8 440.8 224 432 224H420L389.3 469.1C386.3 493.1 365.8 512 341.6 512H106.4C82.17 512 61.75 493.1 58.74 469.1L28 224H16C7.164 224 0 216.8 0 208H.0003zM90.5 465.1C91.5 473.1 98.3 480 106.4 480H341.6C349.7 480 356.5 473.1 357.5 465.1L387.8 224H60.25L90.5 465.1z"/></svg>

<svg xmlns="http://www.w3.org/2000/svg" viewBox="0 0 448 512"><!--! Font Awesome Pro 6.4.0 by @fontawesome - https://fontawesome.com License - https://fontawesome.com/license (Commercial License) Copyright 2023 Fonticons, Inc. --><path d="M96 144c0 8.8-7.2 16-16 16s-16-7.2-16-16C64 64.5 128.5 0 208 0h32c79.5 0 144 64.5 144 144c0 8.8-7.2 16-16 16s-16-7.2-16-16c0-61.9-50.1-112-112-112H208C146.1 32 96 82.1 96 144zM0 208c0-8.8 7.2-16 16-16h8H56.2 391.8 424h8c8.8 0 16 7.2 16 16s-7.2 16-16 16H420L389.3 470c-3 24-23.4 42-47.6 42H106.4c-24.2 0-44.6-18-47.6-42L28 224H16c-8.8 0-16-7.2-16-16zm60.2 16L90.5 466c1 8 7.8 14 15.9 14H341.6c8.1 0 14.9-6 15.9-14l30.2-242H60.2z"/></svg>
